svgs/regular/bring-forward.svg

<svg xmlns="http://www.w3.org/2000/svg" viewBox="0 0 512 512"><!--! Font Awesome Pro 6.6.0 by @fontawesome - https://fontawesome.com License - https://fontawesome.com/license (Commercial License) Copyright 2024 Fonticons, Inc. --><path d="M224 464l224 0c8.8 0 16-7.2 16-16l0-224c0-8.8-7.2-16-16-16l-64 0 0-48 64 0c35.3 0 64 28.7 64 64l0 224c0 35.3-28.7 64-64 64l-224 0c-35.3 0-64-28.7-64-64l0-64 48 0 0 64c0 8.8 7.2 16 16 16zm64-112L64 352c-35.3 0-64-28.7-64-64L0 64C0 28.7 28.7 0 64 0L288 0c35.3 0 64 28.7 64 64l0 224c0 35.3-28.7 64-64 64z"/></svg>

<svg xmlns="http://www.w3.org/2000/svg" viewBox="0 0 512 512"><!--! Font Awesome Pro 6.4.2 by @fontawesome - https://fontawesome.com License - https://fontawesome.com/license (Commercial License) Copyright 2023 Fonticons, Inc. --><path d="M224 464H448c8.8 0 16-7.2 16-16V224c0-8.8-7.2-16-16-16H384V160h64c35.3 0 64 28.7 64 64V448c0 35.3-28.7 64-64 64H224c-35.3 0-64-28.7-64-64V384h48v64c0 8.8 7.2 16 16 16zm64-112H64c-35.3 0-64-28.7-64-64V64C0 28.7 28.7 0 64 0H288c35.3 0 64 28.7 64 64V288c0 35.3-28.7 64-64 64z"/></svg>
